!!!COM: Palestrina, Giovanni Perluigi da
!!!OPR: Ut re mi fa sol la
!!!OTL: Gloria
**kern	**kern	**kern	**kern	**kern	**kern
*Ibass	*Itenor	*Icalto	*Icalto	*Icant	*Icant
!Bassus	!Tenor	!Altus 2	!Altus 1	!Cantus 2	!Cantus 1
*clefF4	*clefGv2	*clefG2	*clefG2	*clefG2	*clefG2
*k[]	*k[]	*k[]	*k[]	*k[]	*k[]
*C:ion	*C:ion	*C:ion	*C:ion	*C:ion	*C:ion
*M4/2	*M4/2	*M4/2	*M4/2	*M4/2	*M4/2
=1	=1	=1	=1	=1	=1
1.C	1.c	1.e	0r	1.g	1.cc
2C	2c	2e	.	2g	2cc
=2	=2	=2	=2	=2	=2
1F	1A	1f	0r	1a	1cc
1A	1c	1e	.	1a	1cc
=3	=3	=3	=3	=3	=3
2G	2B	2g	2r	2b	2dd
2G	2d	2G	2g	2b	2dd
2G	2B	2d	2g	2b	2dd
2G	2B	2d	2g	2b	2dd
=4	=4	=4	=4	=4	=4
2C	2G	2c	2e	2cc	2ee
1F	1A	1c	1a	1cc	1ff
2C	2c	2e	2g	2cc	2ee
=5	=5	=5	=5	=5	=5
2G	2B	2d	2g	2dd	2gg
2G	2G	2B	2g	2dd	2gg
1D	1d	1A	2a	1dd	1ff#
.	.	.	2d	.	.
=6	=6	=6	=6	=6	=6
1C	1G	1c	1r	0ee	1gg
1c	1r	1cc	1g	.	1ee
=7	=7	=7	=7	=7	=7
1d	0r	1a	1f	0r	1dd
1B-	.	1b-	1f	.	1dd
=8	=8	=8	=8	=8	=8
1c	2r	2g	2e	1ee	1cc
.	2c	2g	2cc	.	.
1r	2c	2g	2cc	2ee	1r
.	2c	2g	2cc	2ee	.
=9	=9	=9	=9	=9	=9
0r	1d	1f	1a	1dd	0r
.	1B-	1f	1b-	1dd	.
=10	=10	=10	=10	=10	=10
2r	2c	2e	1g	2cc	2r
1C	1c	1g	.	1cc	1ee
.	.	.	1r	.	.
2C	2c	2g	.	2cc	2ee
=11	=11	=11	=11	=11	=11
1G	1d	1g	0r	1b	1dd
1G	1B	1g	.	1b	1dd
=12	=12	=12	=12	=12	=12
2A	2c	2e	2r	2a	2cc
2F	2A	2f	2c	2a	2ff
2F	2A	2f	2c	2a	2ff
2F	2A	2f	2c	2a	2ff
=13	=13	=13	=13	=13	=13
1C	1c	4e	2e	1g	1ee
.	.	4c	.	.	.
.	.	1cc	2.g	.	.
1G	1d	.	.	1g	2dd
.	.	.	4f	.	.
.	.	2b	2d	.	[2gg
=14	=14	=14	=14	=14	=14
1C	1c	1cc	1e	1g	4gg]
.	.	.	.	.	4ff
.	.	.	.	.	4ee
.	.	.	.	.	4dd
1r	1r	1r	1r	1r	1ee
=15	=15	=15	=15	=15	=15
1.C	1.c	1.cc	1.e	1.g	1.ee
2C	2c	2cc	2e	2g	2ee
=16	=16	=16	=16	=16	=16
1C	1c	1.cc	1e	1g	1ee
1F	1A	.	1c	1a	1ff
.	.	2a	.	.	.
=17	=17	=17	=17	=17	=17
2D	2A	2f	2d	2a	2ff
2D	2.A	2d	2d	2a	2ff
1A	.	1e	2c	1a	1ee
.	4B	.	.	.	.
.	2c	.	[2e	.	.
=18	=18	=18	=18	=18	=18
1E	2B	1g	2e]	1b	1ee
.	2G	.	4d	.	.
.	.	.	4c	.	.
[1G	2r	[1g	2B	[1b	[1dd
.	[2B	.	[2d	.	.
=19	=19	=19	=19	=19	=19
2G]	2B]	2g]	2d]	2b]	2dd]
2G	2B	2g	2G	2b	2dd
[1F	1A	[1a	1c	[1cc	[1ff
=20	=20	=20	=20	=20	=20
1F]	4A	1a]	1d	1cc]	1ff]
.	4G	.	.	.	.
.	4A	.	.	.	.
.	4B	.	.	.	.
1C	1c	1g	1e	1cc	1ee
=21	=21	=21	=21	=21	=21
1G	1B	1g	1d	1dd	1gg
2D	2A	2a	2d	2dd	2ff#
2D	2A	2a	2d	2dd	2ff#
=22	=22	=22	=22	=22	=22
1G	1B	1g	1d	1dd	1gg
1C	[1c	[1g	1c	[1ee	1gg
=23	=23	=23	=23	=23	=23
1r	0c]	1g]	1r	0ee]	1r
1c	.	2r	2r	.	2r
.	.	2g	2cc	.	2ee
=24	=24	=24	=24	=24	=24
2A	0r	2a	2cc	0r	2ee
2A	.	2a	2cc	.	2ee
1c	.	1g	1cc	.	1ff
=25	=25	=25	=25	=25	=25
2d	0r	2f#	2a	0r	2dd
2G	.	1g	1b-	.	1dd
1d	.	.	.	.	.
.	.	2f	[2a	.	2dd
=26	=26	=26	=26	=26	=26
1B-	1r	1d	2a]	1r	1dd
.	.	.	2g	.	.
1A	2r	2e	1a	[1ee	2cc
.	[2A	[2a	.	.	[2cc
=27	=27	=27	=27	=27	=27
0r	2A]	2a]	0r	2ee]	2cc]
.	2A	2a	.	2ee	2cc
.	1c	1g	.	1ee	1cc
=28	=28	=28	=28	=28	=28
0r	2d	2f#	0r	2dd	2a
.	2G	1g	.	2dd	1b-
.	1d	.	.	1dd	.
.	.	2f	.	.	[2a
=29	=29	=29	=29	=29	=29
1r	1B-	1d	1r	1dd	2a]
.	.	.	.	.	2g
2r	1A	2e	2r	2cc	2a
2A	.	2e	2a	2cc	2ee
=30	=30	=30	=30	=30	=30
2A	0r	2e	2a	2cc	2ee
2A	.	2e	2a	2cc	2ee
1c	.	1e	2g	1cc	1ee
.	.	.	2c	.	.
=31	=31	=31	=31	=31	=31
2G	2r	2g	2r	2b	2dd
1G	1B	1g	1d	1b	1dd
2G	2B	2g	2d	2b	2dd
=32	=32	=32	=32	=32	=32
2G	2G	2g	2d	2b	2gg
2G	2G	2d	2d	2b	2gg
1D	2A	2.f	1d	1a	1ff
.	[2d	.	.	.	.
.	.	4g	.	.	.
=33	=33	=33	=33	=33	=33
1A	2d]	2a	1r	1a	1ee
.	2c#	2e	.	.	.
1D	[1d	1f	1a	1a	[1dd
=34	=34	=34	=34	=34	=34
0G	0d]	2.g	0b	[0g	2dd]
.	.	.	.	.	1gg
.	.	8f	.	.	.
.	.	8e	.	.	.
.	.	1d	.	.	.
.	.	.	.	.	2ff
=35	=35	=35	=35	=35	=35
0C	2.c	1e	0cc	0g]	0ee
.	4B	.	.	.	.
.	2G	1c	.	.	.
.	2A	.	.	.	.
=36	=36	=36	=36	=36	=36
0G	1B	0d	0b	0g	0dd
.	1r	.	.	.	.
=37	=37	=37	=37	=37	=37
0r	1G	1g	0r	2r	2r
.	.	.	.	2g	2dd
.	2d	2f	.	2a	2dd
.	2B	2d	.	2b	2dd
=38	=38	=38	=38	=38	=38
0r	1A	2.a	0r	1cc	1ee
.	.	4g	.	.	.
.	1d	4f	.	1dd	2.a
.	.	4e	.	.	.
.	.	2f	.	.	.
.	.	.	.	.	4b
=39	=39	=39	=39	=39	=39
2r	1c	2g	2r	1ee	2cc
2c	.	2e	2g	.	2g
2A	1r	2c	2f#	1r	2a
2G	.	[2d	2g	.	2b
=40	=40	=40	=40	=40	=40
2.F	0r	4d]	2.a	0r	1cc
.	.	4c	.	.	.
.	.	1c	.	.	.
4E	.	.	4g	.	.
1D	.	.	1f	.	1dd
.	.	2B	.	.	.
=41	=41	=41	=41	=41	=41
1C	2r	1c	2e	2r	1ee
.	2c	.	2cc	2ee	.
1r	2d	1r	2b	2dd	1r
.	2f	.	[2a	[2cc	.
=42	=42	=42	=42	=42	=42
0r	2.e	0r	2a]	2cc]	0r
.	.	.	1g	2b	.
.	4d	.	.	.	.
.	2c	.	.	1a	.
.	2d	.	2f#	.	.
=43	=43	=43	=43	=43	=43
1C	2.G	2r	2g	1g	1ee
.	.	2cc	2g	.	.
.	4A	.	.	.	.
2G	2B	2b	2g	1r	2dd
2A	2c	[2a	2e	.	[2cc
=44	=44	=44	=44	=44	=44
2F	1d	2a]	2f	0r	2cc]
2G	.	1g	2d	.	2b
1D	1r	.	1d	.	1a
.	.	2f#	.	.	.
=45	=45	=45	=45	=45	=45
2r	1c	2g	2.e	1ee	2g
2C	.	2g	.	.	2g
.	.	.	4c	.	.
2G	2B	2g	2d	2dd	2b
2C	[2G	[2g	2e	[2cc	2cc
=46	=46	=46	=46	=46	=46
1G	4G]	2g]	2d	2cc]	0dd
.	4A	.	.	.	.
.	4B	2.d	1g	2b	.
.	4G	.	.	.	.
1D	2A	.	.	1a	.
.	.	4c	.	.	.
.	[2d	2A	2f#	.	.
=47	=47	=47	=47	=47	=47
[0G	4d]	2.B	[0g	[0g	[0dd
.	4c	.	.	.	.
.	4B	.	.	.	.
.	4A	4c	.	.	.
.	1B	1d	.	.	.
=48	=48	=48	=48	=48	=48
0G]	0B	0d	0g]	0g]	0dd]
=49	=49	=49	=49	=49	=49
0G	0B	0d	0b	0g	0dd
=50	=50	=50	=50	=50	=50
1G	1d	1B	1b	1g	1dd
2C	2c	2G	2cc	2g	2ee
2C	2c	2g	2cc	2g	2ee
=51	=51	=51	=51	=51	=51
2F	2A	2c	4cc	2a	2ff
.	.	.	4b	.	.
2F	2.f	2c	4a	2a	2cc
.	.	.	4g	.	.
1D	.	2d	2.f	1a	1ff
.	4e	.	.	.	.
.	[2d	[2a	.	.	.
.	.	.	4d	.	.
=52	=52	=52	=52	=52	=52
0A	2d]	4a]	1e	0a	0ee
.	.	8g	.	.	.
.	.	8f	.	.	.
.	4c	2e	.	.	.
.	4B	.	.	.	.
.	1c#	2A	1e	.	.
.	.	2r	.	.	.
=53	=53	=53	=53	=53	=53
1.E	2r	1e	1.g#	1.b	1.ee
.	1e	.	.	.	.
.	.	1B	.	.	.
2E	2e	.	2g#	2b	2ee
=54	=54	=54	=54	=54	=54
1E	2e	1e	2g#	1b	1ee
.	4d	.	1a	.	.
.	4c	.	.	.	.
1E	4B	1e	.	1b	1ee
.	4A	.	.	.	.
.	2B	.	2g#	.	.
=55	=55	=55	=55	=55	=55
2.A	1.A	1.c	0a	0cc	1ee
4G	.	.	.	.	.
1F	.	.	.	.	1ff
.	2B	2d	.	.	.
=56	=56	=56	=56	=56	=56
0C	0c	0e	0g	0cc	1ee
.	.	.	.	.	2r
.	.	.	.	.	[2cc
=57	=57	=57	=57	=57	=57
1.G	2r	1.g	2r	1.dd	2cc]
.	2.G	.	1d	.	4b
.	.	.	.	.	4a
.	.	.	.	.	2b
.	4A	.	.	.	.
2G	4B	2g	2d	2dd	2b
.	4c	.	.	.	.
=58	=58	=58	=58	=58	=58
1G	2d	2g	2.B	1dd	1b
.	2G	4d	.	.	.
.	.	4e	4c	.	.
1F	2A	4f	2d	1dd	1a
.	.	4g	.	.	.
.	2A	[2a	2A	.	.
=59	=59	=59	=59	=59	=59
0E	2.e	2a]	1r	0ee	0b
.	.	4g	.	.	.
.	8d	4f#	.	.	.
.	8c	.	.	.	.
.	1B	1g#	1e	.	.
=60	=60	=60	=60	=60	=60
0A	1A	0a	0e	1ee	1cc#
.	1r	.	.	1r	1r
=61	=61	=61	=61	=61	=61
0r	0e	0r	0g#	0ee	0b
=62	=62	=62	=62	=62	=62
0r	1A	0r	1a	1ee	1cc
.	2e	.	2g#	2ee	2b
.	2A	.	2a	2ee	2cc
=63	=63	=63	=63	=63	=63
0r	2d	0r	2f#	2dd	2a
.	2G	.	1g	2dd	2b
.	1d	.	.	1dd	1a
.	.	.	2f#	.	.
=64	=64	=64	=64	=64	=64
0r	0G	0r	0g	0dd	0b
=65	=65	=65	=65	=65	=65
1.C	1.c	1.g	1.e	1.cc	1.ee
2C	2c	2g	2e	2cc	2ee
=66	=66	=66	=66	=66	=66
0C	0c	0g	0e	0cc	0ee
=67	=67	=67	=67	=67	=67
1.G	1d	2r	1.g	1.b	1.dd
.	.	2d	.	.	.
.	1B	2d	.	.	.
2G	.	2d	2g	2b	2dd
=68	=68	=68	=68	=68	=68
1E	1G	2e	2g	1b	1gg
.	.	2.g	2.e	.	.
1G	1B	.	.	1b	1gg
.	.	4f	4d	.	.
.	.	4d	[2d	.	.
.	.	4e	.	.	.
=69	=69	=69	=69	=69	=69
1A	2c	4f	2d]	1a	2ff
.	.	4g	.	.	.
.	1A	2a	2c#	.	2ee
1D	.	2.f	1d	1a	1ff
.	[2d	.	.	.	.
.	.	4g	.	.	.
=70	=70	=70	=70	=70	=70
1A	2d]	2a	1e	0a	1ee
.	2c	2.A	.	.	.
1F	2.f	.	1A	.	2dd
.	.	4B	.	.	.
.	.	4c	.	.	[2cc
.	4e	4A	.	.	.
=71	=71	=71	=71	=71	=71
0G	0d	4B-	2d	[0g	2cc]
.	.	4G	.	.	.
.	.	2.g	2.G	.	4b
.	.	.	.	.	4a
.	.	.	.	.	1b
.	.	4f	4A	.	.
.	.	2d	2B	.	.
=72	=72	=72	=72	=72	=72
0C	1c	0e	1G	0g]	0cc
.	1r	.	1g	.	.
=73	=73	=73	=73	=73	=73
0r	1c	2r	1e	1g	0r
.	.	1g	.	.	.
.	1A	.	1c	1a	.
.	.	2f	.	.	.
=74	=74	=74	=74	=74	=74
0r	2G	2e	2r	2b	0r
.	2G	2d	2g	2b	.
.	2.c	2.e	4g	1cc	.
.	.	.	4f	.	.
.	.	.	4e	.	.
.	4d	4f	4d	.	.
=75	=75	=75	=75	=75	=75
0r	2e	2g	2c	2cc	0r
.	2f	2a	1cc	2cc	.
.	1d	1f	.	1dd	.
.	.	.	2b	.	.
=76	=76	=76	=76	=76	=76
1r	0c	1g	1cc	1ee	1r
1C	.	1c	1g	1ee	2r
.	.	.	.	.	[2cc
=77	=77	=77	=77	=77	=77
1G	2r	1d	1g	1dd	2cc]
.	1G	.	.	.	2b
1C	.	1g	2e	1cc	1ee
.	2A	.	2c	.	.
=78	=78	=78	=78	=78	=78
1G	2B	1g	2d	1b	1dd
.	2G	.	1g	.	.
1D	1d	1a	.	1a	1dd
.	.	.	2f#	.	.
=79	=79	=79	=79	=79	=79
1G	1d	1b	1g	1g	1dd
2r	2r	2r	1r	2r	2r
[2C	[2c	[2e	.	[2g	[2ee
=80	=80	=80	=80	=80	=80
2C]	2c]	2e]	0r	2g]	2ee]
2C	2c	2e	.	2g	2ee
1F	1A	1f	.	1a	1cc
=81	=81	=81	=81	=81	=81
2A	2c	2e	0r	2a	2cc
1G	1B	1g	.	1b	1dd
2G	2B	2g	.	2b	2ee
=82	=82	=82	=82	=82	=82
1F	1A	1a	1r	1cc	1ff
1C	2c	2g	2r	2cc	1ee
.	2e	2g	2g	2cc	.
=83	=83	=83	=83	=83	=83
0r	1d	1f#	1a	1dd	0r
.	2G	2g	2b	2dd	.
.	[2c	[2g	[2cc	[2ee	.
=84	=84	=84	=84	=84	=84
0r	2c]	2g]	2cc]	2ee]	0r
.	2c	2g	2cc	2ee	.
.	1G	2g	1b	1dd	.
.	.	4G	.	.	.
.	.	4A	.	.	.
=85	=85	=85	=85	=85	=85
0G	4G	4B	0g	0dd	0b
.	4A	4c	.	.	.
.	4B	2d	.	.	.
.	4c	.	.	.	.
.	2d	2B	.	.	.
.	2B	2G	.	.	.
=86	=86	=86	=86	=86	=86
1C	1c	1g	1e	1cc	1ee
2C	2c	2e	2g	2cc	2ee
2C	2G	2c	2g	2cc	2ee
=87	=87	=87	=87	=87	=87
1G	2.B	2.d	1g	1b	1dd
.	4c	4c	.	.	.
1G	[1d	2B	1g	1b	1gg
.	.	2G	.	.	.
=88	=88	=88	=88	=88	=88
0D	2d]	1d	1a	0a	0ff#
.	4c	.	.	.	.
.	4B	.	.	.	.
.	1A	1r	[1d	.	.
=89	=89	=89	=89	=89	=89
0G	1B	1d	2d]	0g	1r
.	.	.	2c	.	.
.	1G	[1d	1B	.	[1gg
=90	=90	=90	=90	=90	=90
0D	[0d	2d]	1A	0a	2gg]
.	.	4c	.	.	4ff
.	.	4B	.	.	4ee
.	.	2A	2.d	.	2ff#
.	.	[2d	.	.	2ff#
.	.	.	4c	.	.
=91	=91	=91	=91	=91	=91
0G	0d]	4d]	4B	0b	0gg
.	.	4c	4G	.	.
.	.	4B	2.g	.	.
.	.	4A	.	.	.
.	.	2G	.	.	.
.	.	.	4f	.	.
.	.	[2g	2d	.	.
=92	=92	=92	=92	=92	=92
0C	[0c	4g]	2e	0cc	1ee
.	.	4f	.	.	.
.	.	4e	2c	.	.
.	.	4d	.	.	.
.	.	1e	2.g	.	2r
.	.	.	.	.	2cc
.	.	.	4f	.	.
=93	=93	=93	=93	=93	=93
2r	1c]	2r	2.e	0r	2.gg
2c	.	2c	.	.	.
.	.	.	4d	.	4ff
2c	2r	2.g	2c	.	2ee
2B	2G	.	2d	.	2dd
.	.	4f	.	.	.
=94	=94	=94	=94	=94	=94
2c	2.g	2e	4e	0r	2cc
.	.	.	4f	.	.
2G	.	2d	1g	.	2b
.	4f	.	.	.	.
1A	2e	2c	.	.	2cc
.	2c	2A	2f#	.	2cc
!! coda
*Ibass	*Itenor	*Icalto	*Icalto	*Icant	*Icant
!Bassus	!Tenor	!Altus 2	!Altus 1	!Cantus 2	!Cantus 1
*clefF4	*clefGv2	*clefG2	*clefG2	*clefG2	*clefG2
*k[]	*k[]	*k[]	*k[]	*k[]	*k[]
*C:ion	*C:ion	*C:ion	*C:ion	*C:ion	*C:ion
*M3/2	*M3/2	*M3/2	*M3/2	*M3/2	*M3/2
=95	=95	=95	=95	=95	=95
1.G	1d	1B	1g	2r	1.b
.	.	.	.	2r	.
.	2G	2b	2g	2dd	.
=96	=96	=96	=96	=96	=96
1r	1c	1cc	1g	1ee	1r
2r	2c	2cc	2g	2ee	2r
=97	=97	=97	=97	=97	=97
1r	1G	1b-	1g	1dd	1r
2r	2B-	2g	2d	2dd	2r
=98	=98	=98	=98	=98	=98
1r	2A	2a	2e	2cc	1r
.	1F	1a	1f	1cc	.
2r	.	.	.	.	2r
=99	=99	=99	=99	=99	=99
1r	2G	1g	2d	2b	1r
.	1D	.	1d	1a	.
2r	.	2f#	.	.	2r
=100	=100	=100	=100	=100	=100
2r	1.G	1g	1B	1.g	2r
2r	.	.	.	.	2r
2G	.	2g	2b	.	2dd
=101	=101	=101	=101	=101	=101
1c	1r	1g	1cc	1r	1ee
2c	2r	2g	2cc	2r	2ee
=102	=102	=102	=102	=102	=102
1G	1r	1g	1b-	1r	1dd
2B-	2r	2d	2g	2r	2dd
=103	=103	=103	=103	=103	=103
2A	1r	2e	2a	1r	2cc
1F	.	1f	1a	.	1cc
.	2r	.	.	2r	.
=104	=104	=104	=104	=104	=104
2G	1r	2d	1g	1r	2b
1D	.	1d	.	.	1a
.	2r	.	2f#	2r	.
=105	=105	=105	=105	=105	=105
1G	2r	2d	1g	2r	2g
.	2r	2r	.	2r	2r
2G	2d	2d	2g	2dd	2b
=106	=106	=106	=106	=106	=106
1C	1c	1g	1e	1ee	1cc
2C	2G	2g	2c	2ee	2cc
=107	=107	=107	=107	=107	=107
1G	2.B	1g	1d	1dd	1b
.	4c	.	.	.	.
2G	2d	2g	2B	2dd	2b
=108	=108	=108	=108	=108	=108
2A	2A	2e	2c	2cc	2a
1F	2c	1f	2A	1cc	1a
.	2A	.	2a	.	.
=109	=109	=109	=109	=109	=109
2G	4B	2d	2.g	2b	2dd
.	4G	.	.	.	.
1D	1A	1d	.	1a	2.dd
.	.	.	8f	.	.
.	.	.	8e	.	.
.	.	.	2f#	.	.
.	.	.	.	.	4cc
=110	=110	=110	=110	=110	=110
1G	1B	2d	[1.g	[1.g	4b
.	.	.	.	.	4g
.	.	2B	.	.	2.dd
[2C	[2e	[2c	.	.	.
.	.	.	.	.	4cc
=111	=111	=111	=111	=111	=111
2C]	2e]	2c]	1.g]	1.g]	1cc
1G	1d	1d	.	.	.
.	.	.	.	.	2b
=112	=112	=112	=112	=112	=112
[1.C	[1.c	[1.e	[1.g	[1.g	[1.cc
=113	=113	=113	=113	=113	=113
1.C]	1.c]	1.e]	1.g]	1.g]	1.cc]
==	==	==	==	==	==
*-	*-	*-	*-	*-	*-
!!!CDT: 1525/^1526/-1594/2/2
!!!OCY: Italia
!!!AGN: Mass (Tenor)
!!!AST: renaissance, vocal
!!!ASW: Antiphon
!!!PWK: Masses, Book 3
!!!RNB: Cadence finals: G
!!!YOR: Le Opere Complete, v. 6, p. 216
!!!YOO: Rome, Italy: Fratelli Scalera
!!!END: 1992//
!!!EED: John Miller
!!!YEC: Copyright 2000, John Miller
!!!YEN: United States of America
!!!YEM: Rights to all derivative electronic formats reserved.
!!!YEM: Refer to licensing agreement for further details.
!!!YEM: This file must be accompanied by the licensing agreement.
!!!YEM: A copy of the licensing agreement may be found at http://www.music-cog.ohio-state.edu/HumdrumDatabases/Palestrina/license.txt
!!!EMD: converted to Humdrum by Bret Aarden
